!!!!SEGMENT: pl-wtm--r-730-7-m--002_moniuszko-stanislaw--walc.krn
!!!cenid: 18xx:1685
!!!COM: Moniuszko, Stanisław
!!!COM-rismid: pe30008351
!!!CDT: 1819/05/05-1872/06/04
!!!CNT: Polish
!!!OTL: Walc
!!!PDT:
!!!AGN: Secular; Waltz
!!!SMS-siglum: PL-Wtm
!!!SMS-shelfmark: R 730/7/M
!!!SMS-shelfwork: 002 W
!!!SMS-variant:
!!!SMS-altvar:
!!!NIFC-rismid: 1001099775
!!!URL-scan: http://repozytorium.nifc.pl/skany/pl-wtm-nut--r730m-1-43
!!!ONB-nifc: Skan 0014. No. 757
**kern	**kern	**dynam
*part1	*part1	*part1
*staff2	*staff1	*
*Iempty	*Iempty	*
*I"	*I"	*
*clefF4	*clefG2	*
*k[f#c#]	*k[f#c#]	*
*D:	*D:	*
*M3/4	*M3/4	*
*>[A,B,B1,B,B2,A,C,D,D1,D,D2]	*>[A,B,B1,B,B2,A,C,D,D1,D,D2]	*
=1	=1	=1
*>A	*>A	*
4AA 4AAA/	4r	.
!	!LO:TUP:b:problem:klamra łukowa	!
4G 4E 4C# 4AA\	12bL 12g/	.
.	12cc#/	.
.	12b/J	.
4G 4E 4C# 4AA\	4a 4e/	.
=2	=2	=2
*rep	*	*
4AA 4AAA/	4r	.
!	!LO:TUP:b:problem:klamra łukowa	!
4G 4E 4C# 4AA\	12bL 12g/	.
.	12cc#/	.
.	12b/J	.
4G 4E 4C# 4AA\	4a 4e/	.
*Xrep	*	*
=3	=3	=3
4DD/	4f#/	.
4F# 4D 4AA\	4ff# 4dd^^\	.
4F# 4D\	[4ff# [>4dd^^\	.
=4	=4	=4
4AAA/	(8ff#]L 8dd\]	.
.	8ee 8cc#\)	.
4F# 4D 4AA\	(8dd 8b\	.
.	8cc# 8a\)	.
4F# 4D 4AA\	(8b 8g\	.
.	8aJ 8f#\)	.
=5	=5	=5
4CC#/	4g 4e/	.
4G 4E 4AA\	4cc# 4a^^\	.
4G 4E 4AA\	[4cc# [>4a^^\	.
=6	=6	=6
4AAA/	8cc#]L 8a\]	.
.	8dd 8b\	.
4G 4E 4AA\	8ee 8cc#\	.
.	8ff# 8dd\	.
4G 4E 4AA\	8gg 8ee\	.
.	8gg#XJ 8ee#X\	.
=7	=7	=7
*	*2\right	*
4DD/	2bb 2ggn\	.
4F# 4D 4AA\	.	.
4F# 4D 4AA\	4aa 4ff#\	.
=8	=8	=8
4D\	2g#X 2e#X'/	.
4B\	.	.
4A\	4a 4f#'/	.
!!LO:LB:g=original
=9	=9	=9
4AA 4AAA/	4r	.
!	!LO:TUP:b:problem:klamra łukowa	!
4G 4E 4C# 4AA\	12bL 12gn/	.
.	12cc#/	.
.	12b/J	.
4G 4E 4C# 4AA\	4a 4e/	.
=10	=10	=10
*rep	*	*
4AA 4AAA/	4r	.
!	!LO:TUP:b:problem:klamra łukowa	!
4G 4E 4C# 4AA\	12bL 12g/	.
.	12cc#/	.
.	12b/J	.
4G 4E 4C# 4AA\	4a 4e/	.
*Xrep	*	*
=11	=11	=11
4D\	4f#/	.
8BL 8D#X\	8ff#L 8a\	.
8B 8D#\	8ff# 8a\	.
8B 8D#\	8ff# 8a\	.
8BJ 8D#\	8ff#J 8a\	.
=12	=12	=12
4B#X 4D#X\	4ff# 4a\	.
!	!LO:SIC:v:n=1:s=b#	!
4B# 4E\	4b 4g#X\	.
!LO:N:acc=-:n=1	!	!
4Bn 4GG\	4ee 4gn\	.
=13	=13	=13
4AA/	4r	.
4d 4A 4F#\	8f#\L	.
.	8a\	.
4d 4A 4F#\	8dd\	.
.	8ff#\J	.
=14	=14	=14
4AA/	4.bb\	.
4c# 4G\	.	.
.	8aa\L	.
4c# 4G\	8ee\	.
.	8ff#\J	.
=15	=15	=15
4d 4F# 4D\	4dd\	.
4A\	4ddd 4ff# 4dd\	.
4F#\	4ddd 4ff# 4dd\	.
=16	=16	=16
2D\	2ddd 2ff# 2dd\	.
!	!LO:TX:b:t=fine.	!
4r	4r	.
=17!|:	=17!|:	=17!|:
*>B	*>B	*
4AA/	4ccc#\	.
4c# 4A 4E\	8bb\L	.
.	8aa\	.
4c# 4A 4E\	8gg#X\	.
.	8ff#\J	.
=18	=18	=18
4EE/	8ee\L	.
.	8eee\	.
4d 4B 4G#X 4E\	8bb\	.
.	8ddd#X\J	.
4d 4B 4G# 4E\	4dddn\	.
!!LO:LB:g=original
=19	=19	=19
4AA/	(8ccc#\L	.
.	16ddd\L	.
.	16ccc#\JJ)	.
4c# 4A 4E\	8bb\L	.
.	8aa\	.
4c# 4A 4E\	8gg#X\	.
.	8ff#\J	.
=20	=20	=20
4EE/	8ee\L	.
.	(8eee\	.
4d 4B 4G#X 4E\	8fff#\)	.
.	8bb\J	.
4d 4B 4G# 4E\	4dddn\	.
=21	=21	=21
4AA/	4ccc#\	.
4c# 4A 4E\	8ddd\L	.
.	8ccc#\	.
4F# 4E 4AA#X\	8bb#X\	.
.	8ccc#\J	.
=22	=22	=22
4F# 4D 4BB\	4eee\	.
4B 4F# 4D\	8ddd#X\L	.
.	8dddn\	.
4d 4B 4F#\	8ff#\	.
.	8bb\J	.
=23	=23	=23
!LO:TX:a:t=1ma	!	!
*>B1	*>B1	*
4EE/	8aa\L	.
.	(16bb\L	.
.	16aa\JJ)	.
4c# 4A 4E\	8gg#X\L	.
.	8aa\	.
4c# 4A 4E\	8bb\	.
.	8ccc#\J	.
=24	=24	=24
4EE/	8ccc#\L	.
.	8bb\	.
4d 4B 4G#X 4E\	8aa\	.
.	8gg#X\	.
4d 4B 4G# 4E\	8ff#\	.
.	8ee\J	.
=25:|!	=25:|!	=25:|!
!LO:TX:a:t=2da	!	!
*>B2	*>B2	*
4EE/	8aa\L	.
.	16bb\L	.
.	16aa\JJ	.
4d 4B 4G#X 4E\	8gg#X\L	.
.	8fff#\	.
4d 4B 4G# 4E\	8eee\	.
.	8gg#\J	.
=26	=26	=26
4c# 4A\	4aa\	.
8AL 8AA\	8aaL 8a\	.
8AJ 8AA\	8aaJ 8a\	.
!	!LO:TX:b:t=D&colon;C&colon; al fine.	!
4A 4AA\	4aa 4a\	.
!!LO:LB:g=original
=27||	=27||	=27||
*>C	*>C	*
*M3/4	*M3/4	*
*k[f#]	*k[f#]	*
!	!	!LO:DY:rj
4G 4D 4GG/	4gg 4b\	ff
8GL 8D 8GG/	8ggL 8b\	.
8GJ 8D 8GG/	8ggJ 8b\	.
4G 4D 4GG/	4gg 4b\	.
=28	=28	=28
.	8qaa/	.
4G 4D 4GG/	4gg 4b\	.
4G 4D 4GG/	4ff# 4a\	.
4G 4D 4GG/	4gg 4b\	.
=29	=29	=29
4G 4D 4GG/	4bb 4b\	.
4G 4D 4GG/	4aa 4b\	.
4G 4D 4GG/	4gg 4b\	.
=30	=30	=30
4G 4D 4GG/	4dd 4b\	.
4GG/	4r	.
!	!	!LO:DY:rj
4r	8ddL 8b\	p
.	8eeJ 8cc\	.
=31	=31	=31
4DD/	(2ff# 2dd^<\	.
4A 4F# 4D\	.	.
4A 4F# 4D\	4ee 4cc\)	.
=32	=32	=32
*rep	*	*
4DD/	4cc 4a\	.
4A 4F# 4D\	4r	.
4A 4F# 4D\	8ccL 8a\	.
.	8ddJ 8b\	.
*Xrep	*	*
=33	=33	=33
4GG/	2ee 2cc\	.
4B 4G 4D\	.	.
4B 4G 4D\	4dd 4b\	.
=34	=34	=34
4GG/	8b 8g/	.
.	8r	.
4r	(8f#/L	<
.	8g/	.
4r	8b/	.
.	8dd/J)	[
=35	=35	=35
4G 4D 4GG/	4gg 4b\	ff
8GL 8D 8GG/	8ggL 8b\	.
8GJ 8D 8GG/	8ggJ 8b\	.
4G 4D 4GG/	4gg 4b\	.
=36	=36	=36
.	8qaa/	.
4G 4D 4GG/	4gg 4b\	.
4G 4D 4GG/	4ff# 4a\	.
4G 4D 4GG/	4gg 4b\	.
=37	=37	=37
4G 4D 4GG/	4bb 4b\	.
4G 4D 4GG/	4aa 4b\	.
4G 4D 4GG/	4gg 4b\	.
!!LO:LB:g=original
=38	=38	=38
4G 4D 4GG/	4dd 4b\	.
4GG/	4r	.
4r	4ee#X\	.
=39	=39	=39
4AA/	(2ff#\	.
4A 4F# 4D\	.	.
4A 4F# 4D\	8ee\L	.
.	8dd\J)	.
=40	=40	=40
4AA/	4.bb\	.
!LO:SIC:v:n=1:s=c#	!	!
4c 4G 4E\	.	.
.	8aa\L	.
!LO:SIC:v:n=1:s=c#	!	!
4c 4G 4E\	8b\	.
!	!LO:SIC:v:s=cc#	!
.	8cc\J	.
=41	=41	=41
4d 4F# 4D\	4dd\	.
4r	8ddL 8d/	.
.	8ddJ 8d/	.
4r	4dd 4d/	.
=42	=42	=42
2.r	4dd 4d/	.
.	4dd\	.
.	4dd#X\	.
=43!|:	=43!|:	=43!|:
*>D	*>D	*
4DD/	4.ee\	.
4c 4A 4F# 4D\	.	.
.	8ddn\L	.
4c 4A 4F# 4D\	8cc\	.
.	8a\J	.
=44	=44	=44
*rep	*	*
4DD/	2e/	.
4c 4A 4F# 4D\	.	.
4c 4A 4F# 4D\	4f#/	.
*Xrep	*	*
=45	=45	=45
4GG/	4.g/	.
4B 4G 4D\	.	.
.	8b\L	.
4B 4G 4D\	8dd\	.
.	8gg\J	.
=46	=46	=46
*rep	*	*
4GG/	(2ff#\	.
4B 4G 4D\	.	.
4B 4G 4D\	8ee\L	.
.	8ff#\J	.
*Xrep	*	*
=47	=47	=47
4DD/	4.ee\)	.
4c 4A 4F# 4D\	.	.
.	8dd\L	.
4c 4A 4F# 4D\	8cc\	.
.	8a\J	.
=48	=48	=48
*rep	*	*
4DD/	2e/	.
4c 4A 4F# 4D\	.	.
4c 4A 4F# 4D\	4f#/	.
*Xrep	*	*
!!LO:PB:g=original
=49	=49	=49
4GG/	4.g/	.
4B 4G 4D\	.	.
.	8b\L	.
4B 4G 4D\	8dd\	.
.	8gg\J	.
=50	=50	=50
*rep	*	*
4GG/	2ff#\	.
4B 4G 4D\	.	.
4B 4G 4D\	4ee\	.
*Xrep	*	*
=51	=51	=51
4GG/	4dd\	.
4B 4G 4D\	8bbL 8gg\	.
.	8bbJ 8gg\	.
4B 4G 4D\	4bb 4gg\	.
=52	=52	=52
*rep	*	*
4GG/	4bb 4gg\	.
4B 4G 4D\	4aa 4ff#\	.
4B 4G 4D\	4gg 4ee\	.
*Xrep	*	*
=53	=53	=53
4CC/	4ff# 4dd\	.
4c 4G 4E 4C\	4ee 4cc\	.
4c 4G 4E 4C\	4ff# 4dd\	.
=54	=54	=54
*rep	*	*
4CC/	4aa 4ff#\	.
4c 4G 4E 4C\	4gg 4ee\	.
4c 4G 4E 4C\	4ee 4cc\	.
*Xrep	*	*
=55	=55	=55
4DD/	4dd 4b\	.
4B 4G 4D\	8b\L	.
.	8dd\	.
4B 4G 4D\	8gg\	.
.	8bb\J	.
=56	=56	=56
4DD/	(4.ddd\	.
4c 4A 4F# 4D\	.	.
.	8ccc\L	.
4c 4A 4F# 4D\	8ee\	.
.	8ff#\J)	.
=57	=57	=57
4B 4G\	4gg\	.
8GL 8D 8GG\	8ggL 8g\	.
8GJ 8D 8GG\	8ggJ 8g\	.
4G 4D 4GG\	4gg 4g\	.
=58	=58	=58
!LO:TX:a:t=1ma	!	!
*>D1	*>D1	*
4G 4D 4GG\	4gg 4g\	.
4r	4ff#X\	.
4r	8ee\L	.
.	8ff#\J	.
=59:|!	=59:|!	=59:|!
!LO:TX:a:t=2da	!	!
*>D2	*>D2	*
4G 4D 4GG\	4gg 4g\	.
4r	4aa-X 4a-X\	.
4r	4aan 4an\	.
==	==	==
*-	*-	*-
!!!system-decoration: [s1,s2]
!!!RDF**kern: > = above
!!!RDF**kern: < = below
!!!RDF**dynam: p = "p."
!!!RDF**dynam: ff = "ff."
!!!AIN: 1 empty
!!!ENC: Marta Lawrence
!!!END: 2021-04-22
!!!ENC: Marcin Jachim
!!!END: 2021-04-02
